X:46
T: Die Brombeerpflueckerin
N: Q0147M
O: Mitteleuropa, Schweiz, Bern
N: Vierte Zeile refrainartig.
R: Ballade, Verfuehrung, Schwangerschaft
M: 2/4
L: 1/16
K: G
D2 | G2G2G2A2 | F2E2D2
D2 | G2G2A2c2 | B4z2
A2 | B2B2B2A2 | B2c2d4 | z2
A2A2G2 | A2B2c2
d2 | B2B2A2AA | G4
G4 | B2d2A2AA | G4z2

